Dominus_Dark_Funeral/22/apps/datagrip.svg

<svg xmlns="http://www.w3.org/2000/svg" width="24" height="24" version="1"><defs><linearGradient id="a"><stop offset="0" stop-color="#040000"/><stop offset="1" stop-opacity="0"/></linearGradient></defs><path d="M1 1v22h22V1H1zm14.36 2.9l2.74 2.77-1.44 1.4L14.62 6v7.02l.5.47 1.06-1.04v-1.1h-1V9.28h2.86l.02-.03v4l-2.84 2.85-2.47-2.5V6.53l2.61-2.62zm-7.94.03h2.5l2.23 2.24v7.72l-2.2 2.2H7.41l-1.5-1.5.81-.8V6.24l-.83-.8 1.52-1.5zm1.2 1.72v8.79l1.64-1.66V7.3L8.62 5.65zm-1.51 11.8h9.78v1.9H7.11v-1.9z" fill="#e6e6e6"/></svg>

<?xml version="1.0" encoding="UTF-8" standalone="no"?>
<svg
   xmlns:dc="http://purl.org/dc/elements/1.1/"
   xmlns:cc="http://creativecommons.org/ns#"
   xmlns:rdf="http://www.w3.org/1999/02/22-rdf-syntax-ns#"
   xmlns:svg="http://www.w3.org/2000/svg"
   xmlns="http://www.w3.org/2000/svg"
   xmlns:sodipodi="http://sodipodi.sourceforge.net/DTD/sodipodi-0.dtd"
   xmlns:inkscape="http://www.inkscape.org/namespaces/inkscape"
   width="24"
   height="24"
   version="1"
   id="svg11"
   sodipodi:docname="datagrip.svg"
   inkscape:version="0.92.4 (5da689c313, 2019-01-14)">
  <metadata
     id="metadata15">
    <rdf:RDF>
      <cc:Work
         rdf:about="">
        <dc:format>image/svg+xml</dc:format>
        <dc:type
           rdf:resource="http://purl.org/dc/dcmitype/StillImage" />
        <dc:title></dc:title>
      </cc:Work>
    </rdf:RDF>
  </metadata>
  <sodipodi:namedview
     pagecolor="#ffffff"
     bordercolor="#666666"
     borderopacity="1"
     objecttolerance="10"
     gridtolerance="10"
     guidetolerance="10"
     inkscape:pageopacity="0"
     inkscape:pageshadow="2"
     inkscape:window-width="1142"
     inkscape:window-height="480"
     id="namedview13"
     showgrid="false"
     inkscape:zoom="9.8333333"
     inkscape:cx="1.2711864"
     inkscape:cy="12"
     inkscape:window-x="0"
     inkscape:window-y="25"
     inkscape:window-maximized="0"
     inkscape:current-layer="svg11" />
  <defs
     id="defs7">
    <linearGradient
       id="a">
      <stop
         offset="0"
         stop-color="#040000"
         id="stop2" />
      <stop
         offset="1"
         stop-opacity="0"
         id="stop4" />
    </linearGradient>
  </defs>
  <path
     d="M 1,1 V 23 H 23 V 1 Z M 15.36,3.9 18.1,6.67 16.66,8.07 14.62,6 v 7.02 l 0.5,0.47 1.06,-1.04 v -1.1 h -1 V 9.28 h 2.86 l 0.02,-0.03 v 4 L 15.22,16.1 12.75,13.6 V 6.53 L 15.36,3.91 Z M 7.42,3.93 h 2.5 l 2.23,2.24 v 7.72 l -2.2,2.2 H 7.41 l -1.5,-1.5 0.81,-0.8 V 6.24 L 5.89,5.44 7.41,3.94 Z m 1.2,1.72 v 8.79 l 1.64,-1.66 V 7.3 Z m -1.51,11.8 h 9.78 v 1.9 H 7.11 Z"
     id="path9"
     inkscape:connector-curvature="0"
     style="fill:#e6e6e6" />
</svg>
